!!!OTL: Graf und Nonne (Die Nonne) Ich stand auf hohem Berge,
!!!ARE: Europa, Mitteleuropa, Deutschland (BRD), Hessen, Giessen, Crumbach
!!!YOR: 8, S. 67
!!    1921 aufgezeichnet
!!!SCT: Q0155R
!!!YEM: Copyright 1995, estate of Helmut Schaffrath.
**kern
*ICvox
*Ivox
*M6/8
*k[f#]
*G:
{8d
=1
4b
8a
4g
8e
=2
4d
8b
4b}
{16b
16b
=3
4a
8a
8cc
8b
8a
=4
2b
8r}
{8b
=5
4dd
8b
4ee
8dd
=6
4cc
8b
4a}
{8g
=7
4f#
8a
4dd
8cc
=8
2b
8r}
{8b
=9
4cc
8ee
4dd
8cc
=10
4b
8a
4g}
{8g
=11
4f#
8a
4dd
8cc
=12
[4.b
4b]}
==
!!!AGN: Ballade, Standesunterschied, Werbung, Liebe, Glueck
!!!ONB: ESAC (Essen Associative Code) Database: BALLADE
!!!AMT: compound duple
!!!AIN: vox
!!!EED: Helmut Schaffrath
!!!EEV: 1.0
*-
